; generated by Slic3r 1.3.0 on 2022-05-20 at 14:53:37

; external perimeters extrusion width = 0.55mm (3.04mm^3/s)
; perimeters extrusion width = 0.70mm (7.88mm^3/s)
; infill extrusion width = 0.63mm (9.31mm^3/s)
; solid infill extrusion width = 0.70mm (2.63mm^3/s)
; top infill extrusion width = 0.70mm (1.97mm^3/s)

M107
M190 S65 ; set bed temperature and wait for it to be reached
M104 S215 ; set temperature
G28 ; home all axes
G1 Z5 F5000 ; lift nozzle

; Filament gcode

M109 S215 ; set temperature and wait for it to be reached
G21 ; set units to millimeters
G90 ; use absolute coordinates
M82 ; use absolute distances for extrusion
G92 E0
G1 Z0.250 F7800.000
G1 E-2.00000 F2400.00000
G92 E0
G1 X62.479 Y61.723 F7800.000
G1 E2.00000 F2400.00000
G1 F1800
G1 X64.689 Y59.657 E2.04776
G1 X67.000 Y57.704 E2.09552
G1 X69.405 Y55.869 E2.14328
G1 X71.899 Y54.156 E2.19104
G1 X74.475 Y52.569 E2.23880
G1 X77.126 Y51.113 E2.28656
G1 X79.847 Y49.790 E2.33432
G1 X82.631 Y48.605 E2.38208
G1 X85.470 Y47.560 E2.42984
G1 X88.358 Y46.658 E2.47760
G1 X91.287 Y45.901 E2.52536
G1 X94.250 Y45.291 E2.57312
G1 X97.240 Y44.830 E2.62088
G1 X100.250 Y44.518 E2.66864
G1 X103.270 Y44.356 E2.71639
G1 X103.838 Y44.343 E2.72536
G1 X106.442 Y44.346 E2.76646
G1 X109.750 Y44.518 E2.81876
G1 X112.760 Y44.830 E2.86652
G1 X115.750 Y45.291 E2.91428
G1 X118.713 Y45.901 E2.96204
G1 X121.642 Y46.658 E3.00980
G1 X124.530 Y47.560 E3.05756
G1 X127.369 Y48.605 E3.10532
G1 X130.153 Y49.790 E3.15308
G1 X132.874 Y51.113 E3.20084
G1 X135.525 Y52.569 E3.24860
G1 X138.101 Y54.156 E3.29636
G1 X140.595 Y55.869 E3.34412
G1 X143.000 Y57.704 E3.39188
G1 X145.310 Y59.657 E3.43964
G1 X147.521 Y61.723 E3.48740
G1 X149.331 Y63.579 E3.52833
G1 X151.341 Y65.840 E3.57609
G1 X153.236 Y68.199 E3.62385
G1 X155.011 Y70.649 E3.67161
G1 X156.661 Y73.185 E3.71937
G1 X158.183 Y75.799 E3.76713
G1 X159.573 Y78.487 E3.81489
G1 X160.827 Y81.240 E3.86265
G1 X161.942 Y84.052 E3.91041
G1 X162.916 Y86.916 E3.95817
G1 X163.746 Y89.826 E4.00593
G1 X164.430 Y92.773 E4.05368
G1 X164.965 Y95.750 E4.10144
G1 X165.352 Y98.751 E4.14920
G1 X165.589 Y101.767 E4.19696
G1 X165.675 Y104.791 E4.24472
G1 X165.611 Y107.816 E4.29248
G1 X165.395 Y110.833 E4.34024
G1 X165.030 Y113.836 E4.38800
G1 X164.515 Y116.818 E4.43576
G1 X163.853 Y119.770 E4.48352
G1 X163.044 Y122.685 E4.53128
G1 X162.090 Y125.556 E4.57904
G1 X160.995 Y128.376 E4.62680
G1 X159.761 Y131.138 E4.67456
G1 X158.390 Y133.835 E4.72232
G1 X156.887 Y136.461 E4.77008
G1 X155.254 Y139.008 E4.81784
G1 X153.497 Y141.471 E4.86560
G1 X151.619 Y143.843 E4.91336
G1 X149.625 Y146.118 E4.96112
G1 X147.521 Y148.292 E5.00888
G1 X145.310 Y150.357 E5.05663
G1 X143.000 Y152.310 E5.10440
G1 X140.595 Y154.145 E5.15215
G1 X138.101 Y155.859 E5.19991
G1 X135.525 Y157.445 E5.24767
G1 X132.873 Y158.902 E5.29543
G1 X130.152 Y160.224 E5.34319
G1 X129.459 Y160.528 E5.35514
G1 X126.966 Y161.567 E5.39778
G1 X124.120 Y162.592 E5.44554
G1 X121.225 Y163.473 E5.49330
G1 X118.291 Y164.209 E5.54106
G1 X115.323 Y164.798 E5.58882
G1 X112.330 Y165.239 E5.63658
G1 X109.319 Y165.529 E5.68434
G1 X106.297 Y165.669 E5.73210
G1 X103.271 Y165.658 E5.77986
G1 X100.250 Y165.497 E5.82761
G1 X97.241 Y165.185 E5.87538
G1 X94.251 Y164.723 E5.92314
G1 X91.288 Y164.113 E5.97090
G1 X88.359 Y163.356 E6.01866
G1 X85.471 Y162.454 E6.06642
G1 X82.632 Y161.409 E6.11418
G1 X79.848 Y160.224 E6.16193
G1 X77.127 Y158.902 E6.20969
G1 X74.475 Y157.446 E6.25745
G1 X71.899 Y155.859 E6.30521
G1 X69.406 Y154.146 E6.35297
G1 X67.001 Y152.311 E6.40073
G1 X64.690 Y150.358 E6.44849
G1 X62.480 Y148.292 E6.49625
G1 X60.375 Y146.119 E6.54401
G1 X58.381 Y143.843 E6.59177
G1 X56.503 Y141.471 E6.63953
G1 X54.746 Y139.009 E6.68729
G1 X53.114 Y136.461 E6.73505
G1 X51.610 Y133.836 E6.78281
G1 X50.240 Y131.139 E6.83057
G1 X49.005 Y128.377 E6.87833
G1 X47.910 Y125.557 E6.92609
G1 X46.957 Y122.685 E6.97385
G1 X46.148 Y119.770 E7.02161
G1 X45.485 Y116.818 E7.06937
G1 X44.970 Y113.837 E7.11713
G1 X44.605 Y110.834 E7.16489
G1 X44.389 Y107.816 E7.21265
G1 X44.325 Y105.224 E7.25358
G1 X44.389 Y102.199 E7.30134
G1 X44.605 Y99.181 E7.34910
G1 X44.970 Y96.178 E7.39686
G1 X45.485 Y93.197 E7.44462
G1 X46.147 Y90.245 E7.49238
G1 X46.956 Y87.330 E7.54014
G1 X47.910 Y84.459 E7.58790
G1 X49.005 Y81.638 E7.63566
G1 X50.239 Y78.876 E7.68342
G1 X51.610 Y76.179 E7.73118
G1 X53.113 Y73.554 E7.77894
G1 X54.746 Y71.007 E7.82670
G1 X56.503 Y68.544 E7.87446
G1 X58.381 Y66.172 E7.92222
G1 X60.374 Y63.896 E7.96998
G1 X62.427 Y61.777 E8.01655
G1 X62.799 Y62.035 F7800.000
G1 F1800
G1 X64.993 Y59.985 E8.06396
G1 X67.287 Y58.046 E8.11137
G1 X69.675 Y56.225 E8.15878
G1 X72.150 Y54.525 E8.20619
G1 X74.707 Y52.950 E8.25360
G1 X77.340 Y51.505 E8.30101
G1 X80.041 Y50.192 E8.34841
G1 X82.804 Y49.017 E8.39582
G1 X85.623 Y47.980 E8.44323
G1 X88.490 Y47.085 E8.49064
G1 X91.397 Y46.334 E8.53805
G1 X94.339 Y45.729 E8.58546
G1 X97.307 Y45.271 E8.63286
G1 X100.294 Y44.962 E8.68027
G1 X103.293 Y44.802 E8.72768
G1 X103.838 Y44.789 E8.73630
G1 X106.434 Y44.793 E8.77727
G1 X109.706 Y44.962 E8.82899
G1 X112.693 Y45.271 E8.87640
G1 X115.661 Y45.729 E8.92381
G1 X118.603 Y46.334 E8.97122
G1 X121.510 Y47.085 E9.01863
G1 X124.377 Y47.980 E9.06604
G1 X127.196 Y49.016 E9.11344
G1 X129.959 Y50.192 E9.16085
G1 X132.660 Y51.505 E9.20826
G1 X135.293 Y52.950 E9.25567
G1 X137.850 Y54.525 E9.30308
G1 X140.325 Y56.225 E9.35049
G1 X142.713 Y58.046 E9.39789
G1 X145.007 Y59.984 E9.44530
G1 X147.201 Y62.035 E9.49271
G1 X149.012 Y63.891 E9.53364
G1 X151.007 Y66.136 E9.58105
G1 X152.887 Y68.477 E9.62846
G1 X154.648 Y70.910 E9.67587
G1 X156.286 Y73.427 E9.72328
G1 X157.797 Y76.022 E9.77068
G1 X159.176 Y78.690 E9.81809
G1 X160.420 Y81.423 E9.86550
G1 X161.527 Y84.215 E9.91291
G1 X162.493 Y87.058 E9.96032
G1 X163.316 Y89.947 E10.00773
G1 X163.994 Y92.872 E10.05513
G1 X164.526 Y95.828 E10.10254
G1 X164.909 Y98.806 E10.14995
G1 X165.144 Y101.800 E10.19736
G1 X165.229 Y104.802 E10.24477
G1 X165.165 Y107.804 E10.29217
G1 X164.950 Y110.800 E10.33958
G1 X164.587 Y113.781 E10.38699
G1 X164.076 Y116.740 E10.43440
G1 X163.417 Y119.670 E10.48181
G1 X162.614 Y122.564 E10.52922
G1 X161.667 Y125.414 E10.57663
G1 X160.579 Y128.213 E10.62403
G1 X159.354 Y130.955 E10.67144
G1 X157.993 Y133.632 E10.71885
G1 X156.500 Y136.238 E10.76626
G1 X154.879 Y138.766 E10.81367
G1 X153.135 Y141.210 E10.86108
G1 X151.270 Y143.564 E10.90848
G1 X149.291 Y145.823 E10.95589
G1 X147.201 Y147.980 E11.00330
G1 X145.007 Y150.030 E11.05071
G1 X142.713 Y151.968 E11.09812
G1 X140.325 Y153.790 E11.14553
G1 X137.850 Y155.490 E11.19293
G1 X135.292 Y157.064 E11.24034
G1 X132.660 Y158.510 E11.28775
G1 X129.959 Y159.822 E11.33516
G1 X129.286 Y160.117 E11.34675
G1 X126.813 Y161.148 E11.38905
G1 X123.988 Y162.165 E11.43645
G1 X121.115 Y163.041 E11.48386
G1 X118.202 Y163.772 E11.53127
G1 X115.257 Y164.357 E11.57868
G1 X112.286 Y164.794 E11.62609
G1 X109.297 Y165.083 E11.67349
G1 X106.297 Y165.223 E11.72091
G1 X103.294 Y165.213 E11.76831
G1 X100.295 Y165.053 E11.81572
G1 X97.308 Y164.743 E11.86313
G1 X94.339 Y164.286 E11.91054
G1 X91.398 Y163.681 E11.95795
G1 X88.490 Y162.930 E12.00535
G1 X85.624 Y162.035 E12.05276
G1 X82.805 Y160.998 E12.10017
G1 X80.042 Y159.822 E12.14758
G1 X77.341 Y158.510 E12.19499
G1 X74.708 Y157.065 E12.24239
G1 X72.151 Y155.490 E12.28980
G1 X69.675 Y153.790 E12.33721
G1 X67.288 Y151.969 E12.38462
G1 X64.994 Y150.030 E12.43203
G1 X62.799 Y147.980 E12.47944
G1 X60.710 Y145.823 E12.52685
G1 X58.730 Y143.565 E12.57425
G1 X56.866 Y141.211 E12.62166
G1 X55.121 Y138.766 E12.66907
G1 X53.500 Y136.238 E12.71648
G1 X52.008 Y133.632 E12.76389
G1 X50.647 Y130.955 E12.81130
G1 X49.421 Y128.214 E12.85870
G1 X48.333 Y125.414 E12.90611
G1 X47.386 Y122.565 E12.95352
G1 X46.583 Y119.671 E13.00093
G1 X45.924 Y116.741 E13.04834
G1 X45.413 Y113.782 E13.09575
G1 X45.050 Y110.801 E13.14315
G1 X44.835 Y107.805 E13.19056
G1 X44.771 Y105.213 E13.23150
G1 X44.835 Y102.210 E13.27891
G1 X45.050 Y99.215 E13.32632
G1 X45.413 Y96.234 E13.37372
G1 X45.924 Y93.274 E13.42113
G1 X46.583 Y90.344 E13.46854
G1 X47.386 Y87.451 E13.51595
G1 X48.333 Y84.601 E13.56336
G1 X49.420 Y81.801 E13.61077
G1 X50.646 Y79.060 E13.65818
G1 X52.007 Y76.383 E13.70558
G1 X53.500 Y73.777 E13.75299
G1 X55.120 Y71.249 E13.80040
G1 X56.865 Y68.804 E13.84781
G1 X58.730 Y66.450 E13.89522
G1 X60.709 Y64.192 E13.94263
G1 X62.746 Y62.088 E13.98885
G1 X63.118 Y62.346 F7800.000
G1 F1800
G1 X65.297 Y60.312 E14.03591
G1 X67.574 Y58.388 E14.08297
G1 X69.944 Y56.581 E14.13002
G1 X72.402 Y54.893 E14.17708
G1 X74.940 Y53.331 E14.22414
G1 X77.553 Y51.897 E14.27119
G1 X80.235 Y50.595 E14.31825
G1 X82.978 Y49.428 E14.36531
G1 X85.776 Y48.399 E14.41237
G1 X88.621 Y47.511 E14.45942
G1 X91.507 Y46.766 E14.50648
G1 X94.427 Y46.166 E14.55354
G1 X97.373 Y45.712 E14.60059
G1 X100.338 Y45.406 E14.64765
G1 X103.315 Y45.248 E14.69471
G1 X103.838 Y45.236 E14.70297
G1 X106.427 Y45.239 E14.74383
G1 X109.662 Y45.406 E14.79497
G1 X112.627 Y45.712 E14.84202
G1 X115.573 Y46.166 E14.88908
G1 X118.493 Y46.766 E14.93614
G1 X121.379 Y47.511 E14.98320
G1 X124.224 Y48.399 E15.03025
G1 X127.022 Y49.428 E15.07731
G1 X129.765 Y50.595 E15.12437
G1 X132.447 Y51.897 E15.17142
G1 X135.060 Y53.331 E15.21848
G1 X137.598 Y54.893 E15.26554
G1 X140.056 Y56.581 E15.31260
G1 X142.426 Y58.388 E15.35965
G1 X144.703 Y60.312 E15.40671
G1 X146.882 Y62.346 E15.45377
G1 X148.956 Y64.487 E15.50082
G1 X150.921 Y66.728 E15.54788
G1 X152.772 Y69.065 E15.59494
G1 X154.504 Y71.491 E15.64199
G1 X156.114 Y74.000 E15.68905
G1 X157.596 Y76.586 E15.73611
G1 X158.947 Y79.243 E15.78317
G1 X160.164 Y81.964 E15.83022
G1 X161.244 Y84.743 E15.87728
G1 X162.184 Y87.571 E15.92434
G1 X162.982 Y90.443 E15.97139
G1 X163.636 Y93.352 E16.01845
G1 X164.144 Y96.289 E16.06551
G1 X164.505 Y99.248 E16.11256
G1 X164.718 Y102.221 E16.15962
G1 X164.783 Y105.201 E16.20668
G1 X164.699 Y108.181 E16.25373
G1 X164.467 Y111.153 E16.30079
G1 X164.086 Y114.109 E16.34785
G1 X163.559 Y117.043 E16.39491
G1 X162.886 Y119.947 E16.44196
G1 X162.070 Y122.814 E16.48902
G1 X161.111 Y125.636 E16.53608
G1 X160.013 Y128.408 E16.58314
G1 X158.778 Y131.121 E16.63019
G1 X157.410 Y133.769 E16.67725
G1 X155.911 Y136.346 E16.72431
G1 X154.286 Y138.844 E16.77136
G1 X152.538 Y141.259 E16.81842
G1 X150.672 Y143.583 E16.86548
G1 X148.692 Y145.812 E16.91253
G1 X146.882 Y147.668 E16.95347
G1 X144.703 Y149.703 E17.00052
G1 X142.426 Y151.626 E17.04758
G1 X140.056 Y153.434 E17.09464
G1 X137.598 Y155.121 E17.14170
G1 X135.060 Y156.684 E17.18875
G1 X132.446 Y158.118 E17.23581
G1 X129.765 Y159.420 E17.28287
G1 X129.113 Y159.705 E17.29411
G1 X126.661 Y160.728 E17.33605
G1 X123.856 Y161.739 E17.38311
G1 X121.005 Y162.608 E17.43017
G1 X118.114 Y163.334 E17.47722
G1 X115.190 Y163.916 E17.52428
G1 X112.241 Y164.350 E17.57134
G1 X109.274 Y164.637 E17.61839
G1 X106.297 Y164.776 E17.66545
G1 X103.316 Y164.767 E17.71251
G1 X100.339 Y164.609 E17.75956
G1 X97.374 Y164.302 E17.80662
G1 X94.428 Y163.848 E17.85368
G1 X91.508 Y163.248 E17.90074
G1 X88.622 Y162.503 E17.94779
G1 X85.776 Y161.615 E17.99485
G1 X82.978 Y160.587 E18.04191
G1 X80.236 Y159.420 E18.08896
G1 X77.554 Y158.118 E18.13602
G1 X74.941 Y156.684 E18.18308
G1 X72.402 Y155.121 E18.23014
G1 X69.945 Y153.434 E18.27719
G1 X67.575 Y151.627 E18.32425
G1 X65.297 Y149.703 E18.37131
G1 X63.119 Y147.669 E18.41836
G1 X61.044 Y145.528 E18.46542
G1 X59.079 Y143.287 E18.51248
G1 X57.228 Y140.950 E18.55954
G1 X55.496 Y138.524 E18.60659
G1 X53.887 Y136.015 E18.65365
G1 X52.405 Y133.429 E18.70071
G1 X51.053 Y130.772 E18.74776
G1 X49.836 Y128.051 E18.79482
G1 X48.756 Y125.272 E18.84188
G1 X47.816 Y122.444 E18.88894
G1 X47.018 Y119.572 E18.93599
G1 X46.364 Y116.663 E18.98305
G1 X45.856 Y113.726 E19.03011
G1 X45.495 Y110.767 E19.07716
G1 X45.282 Y107.794 E19.12422
G1 X45.217 Y105.202 E19.16516
G1 X45.282 Y102.221 E19.21221
G1 X45.495 Y99.248 E19.25927
G1 X45.856 Y96.289 E19.30633
G1 X46.364 Y93.352 E19.35339
G1 X47.018 Y90.444 E19.40044
G1 X47.816 Y87.572 E19.44750
G1 X48.756 Y84.743 E19.49456
G1 X49.836 Y81.965 E19.54162
G1 X51.053 Y79.243 E19.58867
G1 X52.404 Y76.586 E19.63573
G1 X53.886 Y74.000 E19.68279
G1 X55.495 Y71.491 E19.72984
G1 X57.228 Y69.065 E19.77690
G1 X59.079 Y66.728 E19.82396
G1 X61.044 Y64.487 E19.87102
G1 X63.066 Y62.400 E19.91689
G1 X63.438 Y62.658 F7800.000
G1 F1800
G1 X65.600 Y60.639 E19.96360
G1 X67.861 Y58.730 E20.01030
G1 X70.214 Y56.936 E20.05701
G1 X72.653 Y55.262 E20.10371
G1 X75.173 Y53.712 E20.15042
G1 X77.767 Y52.289 E20.19712
G1 X80.428 Y50.997 E20.24383
G1 X83.151 Y49.839 E20.29054
G1 X85.928 Y48.819 E20.33724
G1 X88.753 Y47.938 E20.38395
G1 X91.618 Y47.199 E20.43065
G1 X94.516 Y46.604 E20.47736
G1 X97.440 Y46.154 E20.52407
G1 X100.383 Y45.850 E20.57077
G1 X103.337 Y45.693 E20.61748
G1 X103.838 Y45.682 E20.62539
G1 X106.419 Y45.685 E20.66613
G1 X109.617 Y45.850 E20.71668
G1 X112.560 Y46.154 E20.76339
G1 X115.484 Y46.604 E20.81009
G1 X118.382 Y47.199 E20.85680
G1 X121.247 Y47.938 E20.90351
G1 X124.072 Y48.819 E20.95021
G1 X126.849 Y49.839 E20.99692
G1 X129.572 Y50.997 E21.04362
G1 X132.233 Y52.289 E21.09033
G1 X134.827 Y53.712 E21.13704
G1 X137.347 Y55.262 E21.18374
G1 X139.786 Y56.936 E21.23045
G1 X142.139 Y58.730 E21.27715
G1 X144.400 Y60.639 E21.32386
G1 X146.562 Y62.658 E21.37056
G1 X148.373 Y64.514 E21.41150
G1 X150.337 Y66.726 E21.45821
G1 X152.189 Y69.034 E21.50491
G1 X153.924 Y71.431 E21.55162
G1 X155.536 Y73.911 E21.59832
G1 X157.023 Y76.469 E21.64503
G1 X158.381 Y79.097 E21.69173
G1 X159.606 Y81.790 E21.73844
G1 X160.696 Y84.541 E21.78514
G1 X161.647 Y87.343 E21.83185
G1 X162.457 Y90.188 E21.87856
G1 X163.124 Y93.071 E21.92526
G1 X163.647 Y95.983 E21.97197
G1 X164.024 Y98.917 E22.01867
G1 X164.254 Y101.867 E22.06538
G1 X164.337 Y104.824 E22.11208
G1 X164.272 Y107.782 E22.15879
G1 X164.060 Y110.733 E22.20549
G1 X163.701 Y113.670 E22.25220
G1 X163.197 Y116.585 E22.29891
G1 X162.547 Y119.472 E22.34561
G1 X161.755 Y122.322 E22.39232
G1 X160.821 Y125.130 E22.43902
G1 X159.749 Y127.887 E22.48573
G1 X158.540 Y130.588 E22.53244
G1 X157.198 Y133.224 E22.57914
G1 X155.727 Y135.791 E22.62585
G1 X154.129 Y138.282 E22.67255
G1 X152.410 Y140.689 E22.71926
G1 X150.572 Y143.008 E22.76597
G1 X148.621 Y145.232 E22.81267
G1 X146.562 Y147.357 E22.85938
G1 X144.400 Y149.376 E22.90608
G1 X142.139 Y151.284 E22.95279
G1 X139.786 Y153.078 E22.99950
G1 X137.347 Y154.752 E23.04620
G1 X134.827 Y156.303 E23.09291
G1 X132.233 Y157.726 E23.13961
G1 X129.571 Y159.018 E23.18632
G1 X128.939 Y159.294 E23.19721
G1 X126.508 Y160.309 E23.23880
G1 X123.725 Y161.312 E23.28550
G1 X120.895 Y162.176 E23.33221
G1 X118.026 Y162.897 E23.37892
G1 X115.124 Y163.474 E23.42562
G1 X112.197 Y163.906 E23.47233
G1 X109.252 Y164.192 E23.51903
G1 X106.297 Y164.330 E23.56574
G1 X103.338 Y164.321 E23.61244
G1 X100.384 Y164.164 E23.65915
G1 X97.441 Y163.861 E23.70586
G1 X94.516 Y163.411 E23.75257
G1 X91.618 Y162.816 E23.79927
G1 X88.753 Y162.077 E23.84597
G1 X85.929 Y161.196 E23.89268
G1 X83.152 Y160.175 E23.93939
G1 X80.429 Y159.018 E23.98609
G1 X77.767 Y157.726 E24.03280
G1 X75.174 Y156.303 E24.07950
G1 X72.654 Y154.753 E24.12621
G1 X70.214 Y153.078 E24.17292
G1 X67.861 Y151.285 E24.21962
G1 X65.601 Y149.376 E24.26633
G1 X63.438 Y147.357 E24.31303
G1 X61.379 Y145.233 E24.35974
G1 X59.428 Y143.008 E24.40644
G1 X57.591 Y140.690 E24.45315
G1 X55.871 Y138.282 E24.49986
G1 X54.273 Y135.792 E24.54656
G1 X52.802 Y133.225 E24.59327
G1 X51.460 Y130.588 E24.63997
G1 X50.252 Y127.888 E24.68668
G1 X49.179 Y125.130 E24.73339
G1 X48.246 Y122.323 E24.78009
G1 X47.453 Y119.472 E24.82680
G1 X46.804 Y116.586 E24.87350
G1 X46.299 Y113.671 E24.92021
G1 X45.940 Y110.734 E24.96692
G1 X45.728 Y107.783 E25.01362
G1 X45.663 Y105.190 E25.05456
G1 X45.728 Y102.233 E25.10126
G1 X45.940 Y99.281 E25.14797
G1 X46.299 Y96.345 E25.19468
G1 X46.803 Y93.429 E25.24138
G1 X47.453 Y90.543 E25.28809
G1 X48.245 Y87.692 E25.33479
G1 X49.179 Y84.885 E25.38150
G1 X50.251 Y82.128 E25.42821
G1 X51.460 Y79.427 E25.47491
G1 X52.801 Y76.790 E25.52162
G1 X54.273 Y74.223 E25.56832
G1 X55.870 Y71.733 E25.61503
