; generated by Slic3r 1.3.0 on 2022-05-20 at 14:58:30

; external perimeters extrusion width = 0.55mm (3.04mm^3/s)
; perimeters extrusion width = 0.70mm (7.88mm^3/s)
; infill extrusion width = 0.63mm (9.31mm^3/s)
; solid infill extrusion width = 0.70mm (2.63mm^3/s)
; top infill extrusion width = 0.70mm (1.97mm^3/s)
; support material extrusion width = 0.55mm (6.08mm^3/s)

M107
M190 S65 ; set bed temperature and wait for it to be reached
M104 S215 ; set temperature
G28 ; home all axes
G1 Z5 F5000 ; lift nozzle

; Filament gcode

M109 S215 ; set temperature and wait for it to be reached
G21 ; set units to millimeters
G90 ; use absolute coordinates
M82 ; use absolute distances for extrusion
G92 E0
G1 Z0.250 F7800.000
G1 E-2.00000 F2400.00000
G92 E0
G1 X68.441 Y84.501 F7800.000
G1 E2.00000 F2400.00000
G1 F1800
G1 X70.738 Y83.225 E2.04147
G1 X73.403 Y82.691 E2.08438
G1 X104.647 Y81.419 E2.57802
G1 X105.353 Y81.419 E2.58916
G1 X136.597 Y82.691 E3.08281
G1 X139.176 Y83.194 E3.12429
G1 X141.486 Y84.445 E3.16576
G1 X143.316 Y86.331 E3.20724
G1 X144.497 Y88.678 E3.24871
G1 X144.923 Y91.362 E3.29161
G1 X144.923 Y96.217 E3.36825
G1 X144.820 Y97.545 E3.38929
G1 X143.576 Y105.576 E3.51758
G1 X142.785 Y108.082 E3.55906
G1 X141.281 Y110.236 E3.60053
G1 X139.056 Y111.919 E3.64457
G1 X109.713 Y127.434 E4.16856
G1 X108.523 Y127.953 E4.18906
G1 X108.208 Y128.064 E4.19433
G1 X106.313 Y128.496 E4.22501
G1 X105.982 Y128.533 E4.23027
G1 X105.010 Y128.588 E4.24564
G1 X104.018 Y128.533 E4.26132
G1 X103.687 Y128.496 E4.26658
G1 X101.792 Y128.064 E4.29726
G1 X101.477 Y127.953 E4.30253
G1 X100.287 Y127.434 E4.32303
G1 X70.944 Y111.919 E4.84702
G1 X68.834 Y110.353 E4.88850
G1 X67.289 Y108.228 E4.92997
G1 X66.424 Y105.576 E4.97401
G1 X65.180 Y97.545 E5.10230
G1 X65.077 Y96.217 E5.12334
G1 X65.077 Y91.362 E5.19997
G1 X65.475 Y88.765 E5.24145
G1 X66.632 Y86.406 E5.28292
G1 X68.390 Y84.556 E5.32322
G1 X68.875 Y84.733 F7800.000
G1 F1800
G1 X71.146 Y83.555 E5.36360
G1 X73.421 Y83.137 E5.40011
G1 X104.665 Y81.865 E5.89375
G1 X105.335 Y81.865 E5.90432
G1 X136.579 Y83.137 E6.39797
G1 X139.088 Y83.637 E6.43836
G1 X141.323 Y84.883 E6.47875
G1 X143.066 Y86.755 E6.51913
G1 X144.151 Y89.072 E6.55952
G1 X144.476 Y91.362 E6.59603
G1 X144.476 Y96.217 E6.67267
G1 X144.379 Y97.477 E6.69263
G1 X143.135 Y105.508 E6.82092
G1 X142.355 Y107.944 E6.86130
G1 X140.864 Y110.024 E6.90169
G1 X138.848 Y111.524 E6.94137
G1 X109.504 Y127.040 E7.46537
G1 X108.375 Y127.532 E7.48481
G1 X108.060 Y127.642 E7.49008
G1 X106.263 Y128.053 E7.51918
G1 X105.932 Y128.090 E7.52445
G1 X105.010 Y128.142 E7.53902
G1 X104.068 Y128.090 E7.55391
G1 X103.737 Y128.053 E7.55918
G1 X101.940 Y127.642 E7.58827
G1 X101.625 Y127.532 E7.59354
G1 X100.496 Y127.040 E7.61299
G1 X71.152 Y111.524 E8.13698
G1 X69.104 Y109.992 E8.17737
G1 X67.625 Y107.904 E8.21776
G1 X66.865 Y105.508 E8.25744
G1 X65.621 Y97.477 E8.38573
G1 X65.524 Y96.217 E8.40569
G1 X65.524 Y91.362 E8.48232
G1 X65.921 Y88.835 E8.52271
G1 X67.076 Y86.551 E8.56310
G1 X68.822 Y84.786 E8.60230
G1 X69.308 Y84.972 F7800.000
G1 F1800
G1 X71.550 Y83.895 E8.64157
G1 X73.439 Y83.583 E8.67179
G1 X104.683 Y82.311 E9.16543
G1 X105.316 Y82.311 E9.17543
G1 X136.561 Y83.583 E9.66908
G1 X138.999 Y84.080 E9.70835
G1 X141.155 Y85.320 E9.74762
G1 X142.810 Y87.178 E9.78689
G1 X143.794 Y89.462 E9.82616
G1 X144.030 Y91.362 E9.85638
G1 X144.030 Y96.217 E9.93302
G1 X143.938 Y97.409 E9.95190
G1 X142.694 Y105.439 E10.08019
G1 X141.925 Y107.805 E10.11946
G1 X140.449 Y109.808 E10.15873
G1 X138.639 Y111.130 E10.19411
G1 X109.296 Y126.645 E10.71810
G1 X108.228 Y127.111 E10.73650
G1 X107.913 Y127.221 E10.74176
G1 X106.213 Y127.609 E10.76928
G1 X105.882 Y127.646 E10.77455
G1 X105.010 Y127.695 E10.78833
G1 X104.118 Y127.646 E10.80243
G1 X103.787 Y127.609 E10.80770
G1 X102.087 Y127.221 E10.83522
G1 X101.772 Y127.111 E10.84049
G1 X100.704 Y126.645 E10.85888
G1 X71.361 Y111.130 E11.38287
G1 X69.376 Y109.631 E11.42214
G1 X67.965 Y107.582 E11.46141
G1 X67.306 Y105.439 E11.49680
G1 X66.062 Y97.409 E11.62508
G1 X65.970 Y96.217 E11.64396
G1 X65.970 Y91.362 E11.72060
G1 X66.368 Y88.906 E11.75987
G1 X67.519 Y86.701 E11.79914
G1 X69.254 Y85.024 E11.83723
G1 X69.739 Y85.220 F7800.000
G1 F1800
G1 X71.949 Y84.249 E11.87535
G1 X73.457 Y84.029 E11.89940
G1 X104.701 Y82.757 E12.39304
G1 X105.298 Y82.757 E12.40246
G1 X136.543 Y84.029 E12.89611
G1 X138.907 Y84.523 E12.93423
G1 X140.982 Y85.757 E12.97235
G1 X142.545 Y87.598 E13.01047
G1 X143.425 Y89.846 E13.04860
G1 X143.583 Y91.362 E13.07265
G1 X143.583 Y96.217 E13.14929
G1 X143.497 Y97.340 E13.16708
G1 X142.252 Y105.371 E13.29537
G1 X141.495 Y107.664 E13.33349
G1 X140.035 Y109.587 E13.37161
G1 X138.430 Y110.735 E13.40275
G1 X109.087 Y126.250 E13.92675
G1 X108.080 Y126.690 E13.94408
G1 X107.766 Y126.800 E13.94935
G1 X106.163 Y127.165 E13.97529
G1 X105.832 Y127.203 E13.98056
G1 X105.010 Y127.249 E13.99355
G1 X104.168 Y127.203 E14.00686
G1 X103.837 Y127.165 E14.01213
G1 X102.234 Y126.800 E14.03807
G1 X101.920 Y126.690 E14.04334
G1 X100.913 Y126.250 E14.06068
G1 X71.570 Y110.735 E14.58467
G1 X69.650 Y109.271 E14.62279
G1 X68.309 Y107.262 E14.66091
G1 X67.748 Y105.371 E14.69205
G1 X66.503 Y97.340 E14.82034
G1 X66.417 Y96.217 E14.83814
G1 X66.417 Y91.362 E14.91477
G1 X66.814 Y88.980 E14.95289
G1 X67.963 Y86.856 E14.99101
G1 X69.683 Y85.271 E15.02795
G1 X70.168 Y85.477 F7800.000
G1 F1800
G1 X73.475 Y84.475 E15.08251
G1 X104.719 Y83.203 E15.57615
G1 X105.280 Y83.203 E15.58500
G1 X136.525 Y84.475 E16.07865
G1 X138.812 Y84.965 E16.11559
G1 X140.804 Y86.193 E16.15252
G1 X142.271 Y88.016 E16.18946
G1 X143.137 Y91.362 E16.24402
G1 X143.137 Y96.217 E16.32066
G1 X143.056 Y97.272 E16.33737
G1 X141.811 Y105.303 E16.46566
G1 X141.066 Y107.520 E16.50259
G1 X139.621 Y109.361 E16.53953
G1 X138.222 Y110.341 E16.56650
G1 X108.878 Y125.856 E17.09049
G1 X107.933 Y126.268 E17.10677
G1 X107.618 Y126.378 E17.11204
G1 X106.113 Y126.722 E17.13641
G1 X105.782 Y126.759 E17.14167
G1 X105.010 Y126.803 E17.15388
G1 X104.218 Y126.759 E17.16639
G1 X103.887 Y126.722 E17.17166
G1 X102.382 Y126.378 E17.19603
G1 X102.067 Y126.268 E17.20129
G1 X101.122 Y125.856 E17.21758
G1 X71.778 Y110.341 E17.74157
G1 X69.925 Y108.912 E17.77850
G1 X68.657 Y106.946 E17.81544
G1 X68.189 Y105.303 E17.84241
G1 X66.944 Y97.272 E17.97070
G1 X66.863 Y96.217 E17.98741
G1 X66.863 Y91.362 E18.06405
G1 X67.260 Y89.056 E18.10098
G1 X68.406 Y87.016 E18.13792
G1 X70.111 Y85.526 E18.17367
G1 X70.594 Y85.744 F7800.000
G1 F1800
G1 X73.493 Y84.921 E18.22125
G1 X104.738 Y83.649 E18.71489
G1 X105.262 Y83.649 E18.72317
G1 X136.507 Y84.921 E19.21681
G1 X138.716 Y85.408 E19.25253
G1 X140.620 Y86.628 E19.28824
G1 X141.986 Y88.431 E19.32395
G1 X142.691 Y91.362 E19.37152
G1 X142.691 Y96.217 E19.44816
G1 X142.615 Y97.204 E19.46379
G1 X141.370 Y105.234 E19.59208
G1 X140.637 Y107.374 E19.62779
G1 X139.210 Y109.129 E19.66350
G1 X138.013 Y109.946 E19.68637
G1 X108.670 Y125.461 E20.21037
G1 X107.786 Y125.847 E20.22559
G1 X107.471 Y125.957 E20.23086
G1 X106.063 Y126.278 E20.25365
G1 X105.732 Y126.316 E20.25892
G1 X105.010 Y126.356 E20.27033
G1 X104.268 Y126.316 E20.28206
G1 X103.937 Y126.278 E20.28732
G1 X102.529 Y125.957 E20.31011
G1 X102.214 Y125.847 E20.31538
G1 X101.330 Y125.461 E20.33061
G1 X71.987 Y109.946 E20.85460
G1 X70.204 Y108.554 E20.89031
G1 X69.011 Y106.632 E20.92602
G1 X68.630 Y105.234 E20.94889
G1 X67.385 Y97.204 E21.07718
G1 X67.309 Y96.217 E21.09281
G1 X67.309 Y91.362 E21.16945
G1 X67.706 Y89.135 E21.20516
G1 X68.848 Y87.182 E21.24087
G1 X70.536 Y85.792 E21.27539
G1 E19.27539 F2400.00000
G92 E0
G1 X105.967 Y112.310 F7800.000
G1 E2.00000 F2400.00000
G1 F1800
G1 X105.603 Y112.501 E2.00648
G1 X105.205 Y112.599 E2.01295
G1 X104.795 Y112.599 E2.01943
G1 X104.397 Y112.501 E2.02590
G1 X104.033 Y112.310 E2.03238
G1 X103.726 Y112.038 E2.03885
G1 X103.493 Y111.701 E2.04533
G1 X103.348 Y111.317 E2.05180
G1 X103.299 Y110.910 E2.05828
G1 X103.348 Y110.503 E2.06475
G1 X103.493 Y110.119 E2.07123
G1 X103.726 Y109.782 E2.07770
G1 X104.033 Y109.510 E2.08418
G1 X104.397 Y109.319 E2.09065
G1 X104.795 Y109.221 E2.09713
G1 X105.205 Y109.221 E2.10360
G1 X105.603 Y109.319 E2.11008
G1 X105.967 Y109.510 E2.11655
G1 X106.274 Y109.782 E2.12303
G1 X106.507 Y110.119 E2.12950
G1 X106.652 Y110.503 E2.13598
G1 X106.701 Y110.910 E2.14246
G1 X106.652 Y111.317 E2.14893
G1 X106.507 Y111.701 E2.15541
G1 X106.274 Y112.038 E2.16188
G1 X106.023 Y112.260 E2.16717
G1 X105.711 Y111.940 F7800.000
G1 F1800
G1 X105.444 Y112.080 E2.17194
G1 X105.151 Y112.153 E2.17670
G1 X104.849 Y112.153 E2.18146
G1 X104.556 Y112.080 E2.18623
G1 X104.289 Y111.940 E2.19099
G1 X104.063 Y111.740 E2.19576
G1 X103.892 Y111.492 E2.20052
G1 X103.785 Y111.210 E2.20528
G1 X103.748 Y110.910 E2.21005
G1 X103.785 Y110.610 E2.21481
G1 X103.892 Y110.328 E2.21958
G1 X104.063 Y110.080 E2.22434
G1 X104.289 Y109.880 E2.22910
G1 X104.556 Y109.739 E2.23387
G1 X104.849 Y109.667 E2.23863
G1 X105.151 Y109.667 E2.24340
G1 X105.444 Y109.739 E2.24816
G1 X105.711 Y109.880 E2.25293
G1 X105.937 Y110.080 E2.25769
G1 X106.108 Y110.328 E2.26245
G1 X106.215 Y110.610 E2.26722
G1 X106.252 Y110.910 E2.27198
G1 X106.215 Y111.210 E2.27675
G1 X106.108 Y111.492 E2.28151
G1 X105.937 Y111.740 E2.28627
G1 X105.767 Y111.890 E2.28985
G1 X105.711 Y111.940 F7800.000
G1 X105.357 Y113.045 F7800.000
G1 F1800
G1 X105.357 Y118.356 E2.37369
G1 X105.342 Y118.496 E2.37591
G1 X105.276 Y118.632 E2.37830
G1 X105.158 Y118.726 E2.38069
G1 X104.994 Y118.760 E2.38333
G1 X104.842 Y118.726 E2.38578
G1 X104.724 Y118.632 E2.38817
G1 X104.658 Y118.488 E2.39067
G1 X104.643 Y118.356 E2.39277
G1 X104.643 Y113.045 E2.47660
G1 X105.282 Y113.045 E2.48670
G1 E0.48670 F2400.00000
G92 E0
G1 X105.994 Y100.265 F7800.000
G1 E2.00000 F2400.00000
G1 F1800
G1 X133.857 Y94.343 E2.44968
G1 X133.857 Y103.447 E2.59341
G1 X108.250 Y112.767 E3.02359
G1 X106.124 Y112.767 E3.05716
G1 X106.610 Y112.336 E3.06742
G1 X106.905 Y111.910 E3.07561
G1 X107.089 Y111.425 E3.08379
G1 X107.151 Y110.910 E3.09198
G1 X107.089 Y110.395 E3.10017
G1 X106.905 Y109.910 E3.10835
G1 X106.610 Y109.484 E3.11654
G1 X106.222 Y109.140 E3.12472
G1 X105.763 Y108.899 E3.13291
G1 X105.259 Y108.775 E3.14110
G1 X104.741 Y108.775 E3.14928
G1 X104.237 Y108.899 E3.15747
G1 X103.778 Y109.140 E3.16566
G1 X103.390 Y109.484 E3.17384
G1 X103.095 Y109.910 E3.18203
G1 X102.911 Y110.395 E3.19022
G1 X102.849 Y110.910 E3.19840
G1 X102.911 Y111.425 E3.20659
G1 X103.095 Y111.910 E3.21477
G1 X103.390 Y112.336 E3.22296
G1 X103.876 Y112.767 E3.23322
G1 X101.750 Y112.767 E3.26679
G1 X76.143 Y103.447 E3.69697
G1 X76.143 Y94.343 E3.84070
G1 X104.005 Y100.265 E4.29037
G1 X104.891 Y96.096 E4.35765
G1 X105.108 Y96.096 E4.36108
G1 X105.979 Y100.192 E4.42718
G1 X106.338 Y99.736 F7800.000
G1 F1800
G1 X134.304 Y93.792 E4.87851
G1 X134.304 Y103.760 E5.03587
G1 X108.329 Y113.214 E5.47223
G1 X105.804 Y113.214 E5.51210
G1 X105.804 Y118.381 E5.59367
G1 X105.779 Y118.596 E5.59709
G1 X105.721 Y118.762 E5.59987
G1 X105.627 Y118.912 E5.60266
G1 X105.502 Y119.037 E5.60545
G1 X105.352 Y119.131 E5.60825
G1 X105.188 Y119.189 E5.61100
G1 X104.992 Y119.209 E5.61410
G1 X104.814 Y119.189 E5.61693
G1 X104.648 Y119.131 E5.61972
G1 X104.498 Y119.037 E5.62251
G1 X104.373 Y118.912 E5.62530
G1 X104.288 Y118.776 E5.62783
G1 X104.220 Y118.591 E5.63094
G1 X104.196 Y118.381 E5.63428
G1 X104.196 Y113.214 E5.71585
G1 X101.671 Y113.214 E5.75572
G1 X75.696 Y103.760 E6.19208
G1 X75.696 Y93.792 E6.34944
G1 X103.661 Y99.736 E6.80077
G1 X104.891 Y93.949 E6.89416
G1 X105.108 Y93.949 E6.89758
G1 X106.323 Y99.662 E6.98978
G1 X106.682 Y99.206 F7800.000
G1 F1800
G1 X134.750 Y93.240 E7.44278
G1 X134.750 Y104.072 E7.61377
G1 X108.408 Y113.660 E8.05631
G1 X106.250 Y113.660 E8.09037
G1 X106.250 Y118.406 E8.16529
G1 X106.217 Y118.696 E8.16989
G1 X106.126 Y118.957 E8.17427
G1 X105.978 Y119.192 E8.17865
G1 X105.782 Y119.388 E8.18303
G1 X105.547 Y119.536 E8.18740
G1 X105.286 Y119.627 E8.19177
G1 X104.991 Y119.658 E8.19646
G1 X104.714 Y119.627 E8.20085
G1 X104.453 Y119.536 E8.20523
G1 X104.218 Y119.388 E8.20961
G1 X104.022 Y119.192 E8.21399
G1 X103.884 Y118.974 E8.21806
G1 X103.782 Y118.694 E8.22276
G1 X103.750 Y118.406 E8.22733
G1 X103.750 Y113.660 E8.30226
G1 X101.592 Y113.660 E8.33632
G1 X75.250 Y104.072 E8.77886
G1 X75.250 Y93.241 E8.94985
G1 X103.318 Y99.206 E9.40283
G1 X104.891 Y91.803 E9.52232
G1 X105.108 Y91.803 E9.52575
G1 X106.666 Y99.133 E9.64405
G1 X106.790 Y99.695 F7800.000
G1 E7.64405 F2400.00000
G92 E0
G1 X104.885 Y98.182 F7800.000
G1 E2.00000 F2400.00000
G1 F1800
G1 X104.826 Y97.906 E2.00445
G1 X104.736 Y98.331 E2.01131
G1 X105.232 Y97.835 E2.02239
G1 X105.343 Y98.356 E2.03080
G1 X104.565 Y99.133 E2.04817
G1 X104.395 Y99.935 E2.06112
G1 X105.453 Y98.877 E2.08477
G1 X105.564 Y99.398 E2.09318
G1 X104.224 Y100.737 E2.12311
G1 E0.12311 F2400.00000
G92 E0
G1 X102.783 Y109.759 F7800.000
G1 E2.00000 F2400.00000
G1 F1800
G1 X100.476 Y112.066 E2.05154
G1 X100.939 Y112.234 E2.05932
G1 X102.592 Y110.582 E2.09624
G1 X102.573 Y110.736 E2.09869
G1 X102.627 Y111.179 E2.10573
G1 X101.403 Y112.403 E2.13308
G1 X101.655 Y112.495 E2.13732
G1 X101.942 Y112.495 E2.14186
G1 X102.767 Y111.670 E2.16028
G1 X102.871 Y111.945 E2.16492
G1 X102.974 Y112.095 E2.16779
G1 X102.574 Y112.495 E2.17672
G1 E0.17672 F2400.00000
G92 E0
G1 X76.416 Y95.068 F7800.000
G1 E2.00000 F2400.00000
G1 F1800
G1 X76.763 Y94.721 E2.00776
G1 X77.284 Y94.831 E2.01617
G1 X76.415 Y95.700 E2.03557
G1 X76.415 Y96.331 E2.04555
G1 X77.805 Y94.942 E2.07658
G1 X78.326 Y95.053 E2.08500
G1 X76.415 Y96.963 E2.12767
G1 X76.415 Y97.595 E2.13765
G1 X78.847 Y95.163 E2.19196
G1 X79.367 Y95.274 E2.20038
G1 X76.415 Y98.226 E2.26633
G1 X76.415 Y98.858 E2.27630
G1 X79.888 Y95.385 E2.35389
G1 X80.409 Y95.496 E2.36231
G1 X76.415 Y99.490 E2.45154
G1 X76.415 Y100.121 E2.46151
G1 X80.930 Y95.606 E2.56238
G1 X81.451 Y95.717 E2.57079
G1 X76.415 Y100.753 E2.68330
G1 X76.415 Y101.385 E2.69328
G1 X81.972 Y95.828 E2.81742
G1 X82.493 Y95.939 E2.82583
G1 X76.415 Y102.016 E2.96161
G1 X76.415 Y102.648 E2.97159
G1 X83.014 Y96.049 E3.11901
G1 X83.535 Y96.160 E3.12742
G1 X76.415 Y103.280 E3.28648
G1 X76.415 Y103.308 E3.28693
G1 X76.858 Y103.469 E3.29436
G1 X84.056 Y96.271 E3.45518
G1 X84.577 Y96.381 E3.46360
G1 X77.321 Y103.638 E3.62570
G1 X77.784 Y103.806 E3.63349
G1 X85.098 Y96.492 E3.79689
G1 X85.619 Y96.603 E3.80531
G1 X78.247 Y103.975 E3.97000
G1 X78.710 Y104.143 E3.97778
G1 X86.140 Y96.714 E4.14377
G1 X86.661 Y96.824 E4.15218
G1 X79.173 Y104.312 E4.31946
G1 X79.636 Y104.480 E4.32725
G1 X87.182 Y96.935 E4.49581
G1 X87.703 Y97.046 E4.50423
G1 X80.099 Y104.649 E4.67409
G1 X80.562 Y104.818 E4.68188
G1 X88.223 Y97.157 E4.85303
G1 X88.744 Y97.267 E4.86144
G1 X81.026 Y104.986 E5.03389
G1 X81.489 Y105.155 E5.04167
G1 X89.265 Y97.378 E5.21541
G1 X89.786 Y97.489 E5.22382
G1 X81.952 Y105.323 E5.39885
G1 X82.415 Y105.492 E5.40664
G1 X90.307 Y97.599 E5.58296
G1 X90.828 Y97.710 E5.59137
G1 X82.878 Y105.660 E5.76899
G1 X83.341 Y105.829 E5.77677
G1 X91.349 Y97.821 E5.95568
G1 X91.870 Y97.932 E5.96409
G1 X83.804 Y105.997 E6.14429
G1 X84.267 Y106.166 E6.15207
G1 X92.391 Y98.042 E6.33356
G1 X92.912 Y98.153 E6.34197
G1 X84.730 Y106.335 E6.52475
G1 X85.194 Y106.503 E6.53254
G1 X93.433 Y98.264 E6.71661
G1 X93.954 Y98.375 E6.72503
G1 X85.657 Y106.672 E6.91039
G1 X86.120 Y106.840 E6.91818
G1 X94.475 Y98.485 E7.10483
G1 X94.996 Y98.596 E7.11325
G1 X86.583 Y107.009 E7.30120
G1 X87.046 Y107.177 E7.30898
G1 X95.517 Y98.707 E7.49822
G1 X96.038 Y98.818 E7.50663
G1 X87.509 Y107.346 E7.69717
G1 X87.972 Y107.515 E7.70495
G1 X96.559 Y98.928 E7.89678
G1 X97.079 Y99.039 E7.90519
G1 X88.435 Y107.683 E8.09831
G1 X88.898 Y107.852 E8.10609
G1 X97.600 Y99.150 E8.30050
G1 X98.121 Y99.260 E8.30891
G1 X89.362 Y108.020 E8.50462
G1 X89.825 Y108.189 E8.51240
G1 X98.642 Y99.371 E8.70939
G1 X99.163 Y99.482 E8.71781
G1 X90.288 Y108.357 E8.91609
G1 X90.751 Y108.526 E8.92388
G1 X99.684 Y99.593 E9.12345
G1 X100.205 Y99.703 E9.13187
G1 X91.214 Y108.694 E9.33273
G1 X91.677 Y108.863 E9.34052
G1 X100.726 Y99.814 E9.54268
G1 X101.247 Y99.925 E9.55109
G1 X92.140 Y109.032 E9.75455
